svg/black/ubq.svg

<svg xmlns="http://www.w3.org/2000/svg" width="32" height="32" viewBox="0 0 32 32">
  <g fill-rule="evenodd">
    <path d="M13.5027971,15.843544 L16.8211593,13.8343346 L16.8211593,5 L6.00821609,11.2782877 L6.00821609,20.3813796 L13.785031,24.4491194 L13.5027971,15.843544 Z M18.4973993,16.1191776 L15.1788407,18.1311155 L15.1788407,27 L25.9917839,20.6786595 L25.9917839,11.5755675 L18.214969,7.50782779 L18.4973993,16.1191776 Z M16,32 C7.163444,32 0,24.836556 0,16 C0,7.163444 7.163444,0 16,0 C24.836556,0 32,7.163444 32,16 C32,24.836556 24.836556,32 16,32 Z"/>
    <path fill-opacity=".305" fill-rule="nonzero" d="M18.214969,7.50782779 L25.9917798,11.5756387 L18.4990433,16.1693053 L18.214969,7.50782779 Z M13.785031,24.4491194 L6.0084144,20.3812076 L13.5009567,15.7874266 L13.785031,24.4491194 Z"/>
  </g>
</svg>

<svg xmlns="http://www.w3.org/2000/svg" width="32" height="32"><g fill-rule="evenodd"><path d="M13.503 15.844l3.318-2.01V5L6.008 11.278v9.103l7.777 4.068-.282-8.605zm4.994.275l-3.318 2.012V27l10.813-6.321v-9.103l-7.777-4.068.282 8.611zM16 32C7.163 32 0 24.837 0 16S7.163 0 16 0s16 7.163 16 16-7.163 16-16 16z"/><path fill-opacity=".305" fill-rule="nonzero" d="M18.215 7.508l7.777 4.068-7.493 4.593-.284-8.661zm-4.43 16.941l-7.777-4.068 7.493-4.594.284 8.662z"/></g></svg>
